X:1
T:Stoptime Rag
T:“Stoptime”
T:by SCOTT JOPLIN.
T:To get the desired effect of “Stoptime” the pianist should stamp the heel of one foot heavily upon the floor, wherever the word “Stamp” appears in the music.
T:Rag.
T:Gladionlus Rag. Searchlight Rag.
T:Composer of
T:Public Domain
T:Public Domain
T:Public Domain
T:Public Domain
C:Scott Joplin
Z:Public Domain
%%score { ( 1 4 ) | ( 2 3 ) }
L:1/8
Q:1/4=100
M:2/4
K:C
V:1 treble nm="Piano"
V:4 treble 
V:2 treble 
V:3 treble 
V:1
"^Fast or slow." (c'/g'/e'/c'/ g/e'/c'/g/) | (a/c'/b/a/) g(3(E/F/^F/ | G) z z2 | %3
{ac'} (d'/e'/d') d' z | (c'/g'/e'/c'/ g/e'/c'/g/) | (a/c'/b/a/ g)(3(E/F/^F/ | G) z z2 |1 %7
 z [FGB][EGc] z :|2 z [FGB][EGc](3(E/^F/^G/) |: A[ce]- [ce]e | (f/e/d/e/) f[ABf] | [^GBe] z z2 | %12
 z4 | z [ce]- [ce]e | (f/e/d/e/) f[ABf] | [^GBe] z z2 |1 z [de^g][cea](3(E/^F/)^G/ :|2 %17
 z [de^g][cea] z || (c'/g'/e'/c'/ g/e'/c'/g/) | (a/c'/)b/a/ g(3(E/F/^F/) | G z z2 | %21
{ac'} (d'/e'/d') d' z | (c'/g'/e'/c'/ g/e'/c'/g/) | (a/c'/b/a/ g)(3(E/F/^F/ | G) z z2 | %25
 z [FGB][EGc]e |: (f/e/f/g/-) (g/a/)g/f/ | (e/^d/e/a/-) (a/g/)a/^a/ | %28
 [fb]([fb]/^a/) (b/c'/)d'/^d'/ | (e'/c'/b/a/ g/a/g/e/) | (f/e/f/g/-) (g/a/)g/f/ | %31
 (e/^d/e/a/-) a/(c'/b/a/) | b(b/d'/) (^c'/d'/e'/^f'/) | (g'/^a/b/d'/ g/=a/g/e/) | %34
 (f/e/f/g/-) (g/a/)g/f/ | (e/^d/e/a/-) (a/g/)a/^a/ | [fb]([fb]/^a/) (b/c'/d'/^d'/) | %37
 e'[E^G]- [EG][Gde] | ([=G^ce]/f/)e/A/ (^G/A/)_B/A/ | (G/F/)A/d/ (f/e/)d/A/ | %40
 ^A/B/d/g/- g/f/=A/B/ |1 (c/G/A/B/ c/d/e/g/) :|2 (c/E/G/e/) c[cg] |: z [cf]- (fc') | (e2 c') z | %45
 z [cfc']- ([cc'][dd']) | ((([ege']2 [Geg]))) z | z [cf]- (fc') | (e2 c') z |1 %49
 [^D^Fc] z [=D=Fc]2- | [DFc][DFB][CEc] z :|2 [^D^Fc] z [=D=Fc]2- | [DFc][DFB] [CEc](G/E/) |: %53
 (^D/^F/A) (A/c/^d) |"^R.H" (^d/^f/a) g(c/=d/) | e_e- e_A | ([C-_A]2 [CG])(G/=E/) | %57
 (^D/^F/A) (A/c/^d) |"^R.H." (^d/^f/a) g(3(E/=F/^F/ | G) z z2 |1 z [FGB][EGc](G/E/) :|2 %61
 z [FGB][EGc] z |: z [cf]- (fc') | (e2 c') z | z [cfc']- ([cc'][dd']) | ((([ege']2 [Geg]))) z | %66
 z [cf]- (fc') | (e2 c') z | [^D^Fc] z [=D=Fc]2- | [DFc][DFB][CEc] z :: [Gce][^Gde]- [Gde][=Gde] | %71
 [G^ce][^F=cd]- [Fcd][=Fcd] | [FBd](G/A/ G) z | z [G^Ae][GBf] z | [Gce][^Gde]- [Gde][=Gde] | %75
 [G^ce][^F=cd]- [Fcd][=Fcd] | [FBd](G/A/ G) z | z [FGB][EGc] z :: z/ (A/c/a/"_stamp" ^f/^d/c/A/) | %79
 z/ (G/c/e/ g) z | z/ (A/c/a/"_stamp" ^f/^d/c/A/) | z/ (G/c/e/ g) z | z/ (A/B/)c/ d/A/c/^d/ | %83
 .e.[Ac^d].[Gce].[^Fcd] | [Gce] z z2 |1 z [FGB][EGc] z :|2 z !>![Bfg]!>![cec'] z!fine! |] %87
V:2
!p!!f!"^stamp" ([EGc]2"^stamp" [Gce]2 |"^stamp" [^FAc^d]2"^stamp" [Gce])[K:bass](3(E,/=F,/^F,/ | %2
"^stamp" G,) z"^stamp" z2 |[K:treble]"^stamp" [^FAc][FAc]"^stamp" [=FGB] z | %4
"^stamp" ([EGc]2"^stamp" [Gce]2 |"^stamp" [^FAc^d]2"^stamp" [Gce])[K:bass](3(E,/=F,/)^F,/ | %6
"^stamp" G, z"^stamp" z2 |1"^stamp" z [G,,G,]"^stamp"[C,C] z :|2 %8
"^stamp" z [G,,G,]"^stamp"[C,C]E, |:"^stamp" A,,[A,CE]"^stamp" A,,[A,CE] | %10
"^stamp" [A,DF][A,DF]"^stamp" [A,DF][D,,D,] |"^stamp" [E,,E,] z"^stamp" z2 | %12
"^stamp" (E,,/^G,,/B,,/E,/-"^stamp" E,/D,/C,/B,,/) |"^stamp" A,,[A,CE]"^stamp" A,,[A,CE] | %14
"^stamp" [A,DF][A,DF]"^stamp" [A,DF][D,,D,] |"^stamp" [E,,E,] z"^stamp" z2 |1 %16
"^stamp" z [E,,E,]"^stamp"[A,,A,]E, :|2"^stamp" z [E,,E,]"^stamp"[A,,A,] z || %18
[K:treble]"^stamp" ([EGc]2"^stamp" [Gce]2 | %19
"^stamp" [^FAc^d]2"^stamp" [Gce])[K:bass](3(E,/=F,/^F,/ |"^stamp" G,) z"^stamp" z2 | %21
[K:treble]"^stamp" [^FAc][FAc]"^stamp" [=FGB] z |"^stamp" ([EGc]2"^stamp" [Gce]2 | %23
"^stamp" [^FAc^d]2"^stamp" [Gce])[K:bass](3(E,/=F,/)^F,/ |"^stamp" G, z"^stamp" z2 | %25
"^stamp" z [G,,G,]"^stamp"[C,C][^C,^C] |:"^stamp" [D,D][G,B,F]"^stamp" [G,,G,][G,B,F] | %27
"^stamp" [C,C][G,CE]"^stamp" [E,E][^C,^C] |"^stamp" [D,D][G,B,F]"^stamp" [G,,G,][G,B,F] | %29
"^stamp" [C,C][^F,C^D]"^stamp" [G,CE][^C,^C] |"^stamp" [D,D][G,B,F]"^stamp" [G,,G,][G,B,F] | %31
"^stamp" [C,C][G,CE]"^stamp" _E,[G,C] |"^stamp" D,[G,B,D]"^stamp" D,[^F,CD] | %33
"^stamp" [G,,G,][G,B,D]"^stamp" [G,B,D][^C,^C] |"^stamp" [D,D][G,B,F]"^stamp" [G,,G,][G,B,F] | %35
"^stamp" [C,C][G,CE]"^stamp" [E,E][^C,^C] |"^stamp" [D,D][G,B,F]"^stamp" [D,,D,][F,,F,] | %37
"^stamp" ([E,,E,]/^G,,/B,,/E,/-)"^stamp" (E,/D,/)C,/B,,/ |"^stamp" A,,[G,A,^C]"^stamp" A,,[G,A,C] | %39
"^stamp" D,[F,A,D]"^stamp" A,,[F,A,D] |"^stamp" D,[G,B,F]"^stamp" G,,[G,B,F] |1 %41
"^stamp" C,[G,CE]"^stamp" [E,E][^C,^C] :|2"^stamp" C,[G,CE]"^stamp" [G,CE][_B,CE] |: %43
"^stamp" z [A,CF]-"^stamp" (A,_A,) |"^stamp" [G,CE]2-"^stamp" [G,CE] z | %45
"^stamp" z [A,CF]-"^stamp" (A,_A,) |"^stamp" [G,CE]2-"^stamp" [G,CE] z | %47
"^stamp" z [A,CF]-"^stamp" (A,_A,) |"^stamp" [G,CE]2-"^stamp" [G,CE] z |1 %49
"^stamp" [A,,A,] z"^stamp" [_A,,_A,]2- |"^stamp" [A,,A,][G,,G,]"^stamp"[C,G,] z :|2 %51
"^stamp" [A,,A,] z"^stamp" [_A,,_A,]2- |"^stamp" [A,,A,][G,,G,]"^stamp" [C,G,](E,/G,/) |: %53
"^stamp" (^F,/A,/C)"^stamp" (C/^D/[I:staff -1]^F) |"^L.H.""^stamp" ^F[Fc^d]"^stamp" [Gce](C/=D/) | %55
"^stamp" E_E-"^stamp" E[I:staff +1]_A, |"^stamp" (F,2"^stamp" =E,)(E,/G,/) | %57
"^stamp" (^F,/A,/C)"^stamp" (C/^D/)[I:staff -1]^F | %58
"^L.H.""^stamp" ^F[Fc^d]"^stamp" [Gce][I:staff +1](3(E,/=F,/^F,/ |"^stamp" G,) z"^stamp" z2 |1 %60
"^stamp" z [G,,G,]"^stamp"[C,C](E,/G,/) :|2"^stamp" z [G,,G,]"^stamp"[C,C] z |: %62
"^stamp" z [A,CF]-"^stamp" (A,_A,) |"^stamp" [G,CE]2-"^stamp" [G,CE] z | %64
"^stamp" z [A,CF]-"^stamp" (A,_A,) |"^stamp" [G,CE]2-"^stamp" [G,CE] z | %66
"^stamp" z [A,CF]-"^stamp" (A,_A,) |"^stamp" [G,CE]2-"^stamp" [G,CE] z | %68
"^stamp" [A,,A,] z"^stamp" [_A,,_A,]2- |"^stamp" [A,,A,][G,,G,]"^stamp"[C,G,] z :: %70
"^stamp" [C,C][B,,B,]-"^stamp" [B,,B,][_B,,_B,] | %71
"^stamp" [A,,A,][A,,A,]-"^stamp" [A,,A,][_A,,_A,] |"^stamp" [G,,G,](G,/A,/"^stamp" G,) z | %73
"^stamp" z [^C,^C]"^stamp"[D,D][G,,G,] |"^stamp" [C,C][B,,B,]-"^stamp" [B,,B,][_B,,_B,] | %75
"^stamp" [A,,A,][A,,A,]-"^stamp" [A,,A,][_A,,_A,] |"^stamp" ([G,,G,]G,/A,/)"^stamp" G, z | %77
"^stamp" z [G,,G,]"^stamp"[C,C] z ::"^stamp" (((([^F,A,C^D]4 | %79
"^stamp" [G,CE]2-))))"^stamp" [G,CE] z |"^stamp" ((([^F,A,C^D]4 | %81
"^stamp" [G,CE]2-)))"^stamp" [G,CE] z |"^stamp" [F,A,CD]2-"^stamp" [F,A,CD][^F,A,C^D] | %83
"^stamp" .[G,CE].[^F,C^D]"^stamp".[G,CE].[_A,CD] |"^stamp" [G,CE] z"^stamp" z2 |1 %85
"^stamp" z [G,,G,]"^stamp"[C,C] z :|2"^stamp" z !>![G,,G,]"^stamp"!>![C,,C,] z |] %87
V:3
 x4 | x3[K:bass] x | x4 |[K:treble] x4 | x4 | x3[K:bass] x | x4 |1 x4 :|2 x4 |: x4 | x4 | x4 | x4 | %13
 x4 | x4 | x4 |1 x4 :|2 x4 ||[K:treble] x4 | x3[K:bass] x | x4 |[K:treble] x4 | x4 | x3[K:bass] x | %24
 x4 | x4 |: x4 | x4 | x4 | x4 | x4 | x2 _E,2 | D,2 D,2 | x4 | x4 | x4 | x4 | x4 | x4 | x4 | x4 |1 %41
 x4 :|2 x4 |: x2 [CF]2 | x4 | x2 [CF]2 | x4 | x2 [CF]2 | x4 |1 x4 | x4 :|2 x4 | x4 |: x4 | x4 | %55
 x4 | x4 | x4 | x4 | x4 |1 x4 :|2 x4 |: x2 [CF]2 | x4 | x2 [CF]2 | x4 | x2 [CF]2 | x4 | x4 | x4 :: %70
 x4 | x4 | x4 | x4 | x4 | x4 | x4 | x4 :: x4 | x4 | x4 | x4 | x4 | x4 | x4 |1 x4 :|2 x4 |] %87
V:4
 x4 | x4 | x4 | x4 | x4 | x4 | x4 |1 x4 :|2 x4 |: x4 | x4 | x4 | x4 | x4 | x4 | x4 |1 x4 :|2 x4 || %18
 x4 | x4 | x4 | x4 | x4 | x4 | x4 | x4 |: x4 | x4 | x4 | x4 | x4 | x4 | x4 | x4 | x4 | x4 | x4 | %37
 x4 | x4 | x4 | x4 |1 x4 :|2 x4 |: x2 c2 | c2- c x | x2 f2 | x4 | x2 c2 | c2- c x |1 x4 | x4 :|2 %51
 x4 | x4 |: x4 | x4 | x4 | x4 | x4 | x4 | x4 |1 x4 :|2 x4 |: x2 c2 | c2- c x | x2 f2 | x4 | x2 c2 | %67
 c2- c x | x4 | x4 :: x4 | x4 | x4 | x4 | x4 | x4 | x4 | x4 :: x4 | x4 | x4 | x4 | x4 | x4 | x4 |1 %85
 x4 :|2 x4 |] %87

